html/dist/img/svg/linked.svg

<svg width="40" height="43" viewBox="0 0 40 43" fill="none" xmlns="http://www.w3.org/2000/svg">
<path d="M20 0.866699C8.95441 0.866699 0 10.2366 0 21.7947C0 33.3528 8.95441 42.7227 20 42.7227C31.0456 42.7227 40 33.3528 40 21.7947C40 10.2366 31.0456 0.866699 20 0.866699ZM14.6447 31.5525H9.82033V16.3658H14.6447V31.5525ZM12.2327 14.2934H12.2003C10.582 14.2934 9.53318 13.1259 9.53318 11.6681C9.53318 10.178 10.6132 9.04445 12.2644 9.04445C13.9155 9.04445 14.9306 10.1776 14.9623 11.6681C14.9623 13.1263 13.9159 14.2934 12.2327 14.2934ZM32.0437 31.5525H27.2189V23.4273C27.2189 21.3864 26.5209 19.9935 24.7749 19.9935C23.4418 19.9935 22.6484 20.9323 22.2992 21.8405C22.1719 22.1652 22.139 22.6172 22.139 23.0713V31.5525H17.3126C17.3126 31.5525 17.3775 17.7913 17.3126 16.3658H22.1382V18.5183C22.7794 17.4849 23.9244 16.0088 26.4873 16.0088C29.6626 16.0088 32.0429 18.1792 32.0429 22.8442V31.5525H32.0437Z" fill="#7C7C7D"/>
</svg>

<svg width="40" height="43" viewBox="0 0 40 43" fill="none" xmlns="http://www.w3.org/2000/svg"><path d="M20 .867c-11.046 0-20 9.37-20 20.928 0 11.558 8.954 20.928 20 20.928s20-9.37 20-20.928C40 10.237 31.046.867 20 .867zm-5.355 30.685H9.82V16.366h4.825v15.186zm-2.412-17.259H12.2c-1.618 0-2.667-1.167-2.667-2.625 0-1.49 1.08-2.624 2.731-2.624 1.652 0 2.667 1.134 2.698 2.624 0 1.458-1.046 2.625-2.73 2.625zm19.81 17.26H27.22v-8.126c0-2.04-.698-3.433-2.444-3.433-1.333 0-2.127.938-2.476 1.846-.127.325-.16.777-.16 1.231v8.481h-4.826s.065-13.76 0-15.186h4.825v2.152c.641-1.033 1.786-2.51 4.35-2.51 3.175 0 5.555 2.171 5.555 6.836v8.708z" fill="#7C7C7D"/></svg>
